X:1
T:Title
%%score { ( 1 3 5 ) | ( 2 4 ) }
L:1/8
M:3/4
K:Db
V:1 treble nm="Grand Piano"
V:3 treble 
V:5 treble 
V:2 bass 
V:4 bass 
V:1
 z2 z2[Q:1/4=110] F2 | F4 z2 | [DF]4 z2 | [EG]4 z2 | [EG]4 z2 | z2 z2 B2 | [E=A]4 z2 | F4 EG | %8
 F4 B2 | [FB]4 z2 | [FB]4 z2 | [FA]4 z2 | [FA]4 z2 | z2 z2 G2 | [EB]4 z2 | z2 z2 EG | F4 z2 | %17
 z2 z2 =AG | z2 z2 F_F | F4 z2 | B,2 B,4 | [FB]4 z2 | [Fd]4 z2 | [FB]4 z2 | z2 z2 B2 | ef ed dc | %26
 de dc cB | cd cB B=A | [FB]4 B2 | [=Ac]4 z2 | [Bd]4 [=Ac]2 | z2 z2 =AB |[M:4/4] c4- cB,B,D | %33
 F6[K:bass][K:treble] z2 | F6[K:bass] B,2 | F6[K:treble] z2 | C6[K:bass] =A,2 | %37
 z2 B,2 z[K:treble] FGA |[M:11/8] F-F-F-F-F-F- F3 B2 |[M:3/4] [F=A]4[K:bass] z2 | [DF]4 z2 | %41
 D4 z2 | B,4 z2 |] %43
V:2
 z6 | D,2 z2 DE | D,2 F,2 E,2 | E,2 z2[K:treble] EF | E,2 G,2 G,2 | D,2 z2 F2 | C,2 F,2 [G,B,E]2 | %7
 [F,=A,]4 [G,B,]2 | z2 z2[K:treble] F2 | F,2 B,2 [CEF]2 | F,2 z2[K:treble] FG | %11
 C,2 F,2 [=G,B,_F]2 | D,2 z2[K:treble] EF | E,2 z2 E2 | E,2 z2 A2 | E,2 G,4 | %16
 F,2 z2[K:treble] B=A | F,2 B,4 | F,2 =A,4 | F,2 =A,4 | D,2 z2[K:treble] B=A | F,2 B,2 =A,2 | %22
 F,2 B,2 =A,2 | F,2 B,2[K:treble] z c | F,2 B,4 | [E,G,B,]6 | [D,F,B,]6 | [E,F,=A,]6 | z2 z2 F2 | %29
 E,2 z2[K:treble] ce | F,2 B,2 C2 | F,2 B,4 |[M:4/4] E6 z2 | B,,2 D,2 F,4 | B,,2 D,2 F,4 | %35
 B,,2 D,2 F,4 | F,,2 E,2 F,4 | E,2 G,2 G,4 | %38
[M:11/8] [D,F,B,]-[D,F,B,]-[D,F,B,]-[D,F,B,]-[D,F,B,]-[D,F,B,]- [D,F,B,]3 B,,2 |[M:3/4] C,2 z2 G2 | %40
 D,2 F,2 [E,G,B,]2 | D,2 F,2 [E,F,=A,]2 | [D,F,]2 z2 z2 |] %43
V:3
 x6 | z2 B,4 | z2 B,2 [G,B,EG]2 | z2 B,4 | z2 B,2 [B,EG]2 | [FB]4 z2 | z2 =A,2 G2 | x6 | x6 | %9
 z2 D2 =Ac | z2 D4 | z2 A,2 =GB | z2 A,4 | [EG]4 z2 | z2 B,4 | [EG]4 z2 | z2 C4 | [EB]4 z2 | %18
 F4 z2 | z2 z2 DC | x6 | z2 D2 [CEc]2 | z2 D2 [CEc]2 | z2 D2 .=A2 | [FB]4 z2 | [GB]6 | [FB]6 | %27
 [F=A]6 | x6 | z2 [=A,C]4 | x6 | [FB]4 z2 |[M:4/4] x8 | z2[K:bass] F,2 z[K:treble] FGA | %34
 z2[K:bass] F,2 B,B, z D | z2 F,2 z[K:treble] FED | z2[K:bass] F,2 =A,A, z C | E6[K:treble] z2 | %38
[M:11/8] x11 |[M:3/4] z2[K:bass] [F,=A,]4 | z2 B,2 E2 | z2 B,2 C2 | z2 B,,2 z2 |] %43
V:4
 x6 | z2 F,4 | x6 | z2 G,4[K:treble] | x6 | z2 F,4 | x6 | x6 | [F,=A,C]6[K:treble] | x6 | %10
 z2 B,4[K:treble] | x6 | z2 F,4[K:treble] | z2 G,4 | z2 G,4 | x6 | z2 =A,4[K:treble] | x6 | x6 | %19
 x6 | z2 F,4[K:treble] | x6 | x6 | z2 z2[K:treble] C2 | x6 | x6 | x6 | x6 | [D,F,B,]6 | %29
 z2 F,4[K:treble] | x6 | x6 |[M:4/4] [F,=A,C]8 | x8 | x8 | x8 | x8 | x8 |[M:11/8] x11 | %39
[M:3/4] z2 E,4 | x6 | x6 | x6 |] %43
V:5
 x6 | x6 | x6 | x6 | x6 | z2 B,4 | x6 | x6 | x6 | x6 | x6 | x6 | x6 | z2 B,4 | x6 | z2 B,4 | x6 | %17
 z2 D4 | z2 C4 | z2 C4 | x6 | x6 | x6 | x6 | z2 D4 | x6 | x6 | x6 | x6 | x6 | x6 | z2 D4 | %32
[M:4/4] x8 | z4[K:bass] B,4[K:treble] | x2[K:bass] x6 | z4 B,4[K:treble] | x2[K:bass] x6 | %37
 z4 B,4[K:treble] |[M:11/8] x11 |[M:3/4] x2[K:bass] x4 | x6 | x6 | x6 |] %43

